resources/svg/anja.svg

<svg xmlns="http://www.w3.org/2000/svg" viewBox="0 0 15 15" fill="currentColor"><path d="M8 13C9.10457 13 10 12.1046 10 11H9C9 11.5523 8.55228 12 8 12H6.5V13H8Z" fill="black"/><path fill-rule="evenodd" clip-rule="evenodd" d="M7.5 15C7.31717 15 7.1359 14.9903 6.95678 14.9712L7 15H1V6H1.01894C1.27426 2.64378 4.07839 0 7.5 0C11.0899 0 14 2.91015 14 6.5V15H7.5ZM8.9742 4.89939L10.2747 4.98609C10.632 5.36762 11.1319 6.01019 11.5016 7H4.20723C5.31862 5.61087 7.06894 4.77237 8.9742 4.89939ZM9.08535 8H11.7947C11.8088 8.06421 11.8223 8.12948 11.8352 8.19581C11.8865 8.46039 11.9082 8.72901 11.9046 9H10.5C9.84689 9 9.29127 8.5826 9.08535 8ZM10.5 10H11.7859C11.6738 10.521 11.4892 11.0432 11.2615 11.5555C10.6008 13.042 9.12671 14 7.5 14C5.87329 14 4.39916 13.042 3.73849 11.5555C3.50742 11.0356 3.33324 10.5106 3.25433 10H4.5C5.70948 10 6.71836 9.14112 6.94999 8H8.05001C8.28164 9.14112 9.29052 10 10.5 10ZM4.5 9H3.23539C3.26673 8.77018 3.32549 8.5466 3.41582 8.33136C3.46302 8.21892 3.51373 8.10842 3.56781 8H5.91465C5.70873 8.5826 5.15311 9 4.5 9Z" fill="black"/></svg>

<svg xmlns="http://www.w3.org/2000/svg" viewBox="0 0 15 15" fill="currentColor"><path d="M8 13a2 2 0 002-2H9a1 1 0 01-1 1H6.5v1H8z" fill="currentColor"/><path fill-rule="evenodd" clip-rule="evenodd" d="M7.5 15a5.14 5.14 0 01-.543-.029L7 15H1V6h.019A6.5 6.5 0 0114 6.5V15H7.5zM8.974 4.9l1.3.086A5.951 5.951 0 0111.503 7H4.207a5.616 5.616 0 014.767-2.1zM9.085 8h2.71l.04.196a4 4 0 01.07.804H10.5a1.5 1.5 0 01-1.415-1zm1.415 2h1.286a8.016 8.016 0 01-.524 1.556 4.116 4.116 0 01-7.524 0A6.23 6.23 0 013.254 10H4.5a2.5 2.5 0 002.45-2h1.1a2.5 2.5 0 002.45 2zm-6-1H3.235c.032-.23.09-.453.18-.669.048-.112.099-.223.153-.331h2.347A1.5 1.5 0 014.5 9z" fill="currentColor"/></svg>
